X:1
T:Hinsdale Transcribed from Harmonia Americana, 1791.
T:G Major Samuel Holyoke, 1791
T:Isaac Watts, 1717 (Psalm 16, Part 2)     86. 86. (C. M.)
%%score [ 1 2 3 4 ]
L:1/8
Q:1/4=150
M:4/4
K:G
V:1 treble nm="Voice" snm="Tr."
V:2 treble nm="Voice" snm="C."
V:3 treble-8 nm="Tenor" snm="T."
V:4 bass nm="Bass" snm="B."
V:1
"_3. When shall my feet arise and stand  On  heav'n's  eternal hills?                                                     There sits the Son at God's right hand,       And there __________    the  Fa – ther smiles.""_1. Thou wilt reveal the paths of life,  And raise me to thy throne;                                                      Thy courts immortal plea–sure   give,       Thy  pre        –        –           sence  joys unknown.""_2. My spirit, Lord, thou wilt not leave  Where souls departed are;                                                      Nor  quit my body     to    the     grave,       To   see ____________   cor–rup–tion  there." B8 | %1
 B2 B2 c2 A2 | G4 F4 | G6 d2 | B4 B4 | c4 A4 | G6 z2 |: z8 | z4 z2 G2 | d2 d2 d2 A2 | B4 ^c4 | %11
 A6 A2 | (B3 A G3 A | B6) cA | G4 A4 |1 B6 z2 :|2 B8 |] %17
V:2
"_1. Thou wilt reveal the paths of life,  And raise me to thy throne;                                                                            Thy courts immortal pleasure give, Thy pre      –        –    sence  joys unknown.""_2. My spirit, Lord, thou wilt not leave  Where souls departed are;                                                                            Nor   quit  my  body  to  the  grave, To  see _________  cor–rup–tion  there.""_3. When shall my feet arise and stand  On  heav'n's  eternal hills?                                                                          There sits the Son at God's right hand, And there _____   the  Fa – ther smiles." D8 | %1
 G2 G2 G2 E2 | D4 D4 | D6 F2 | G4 G4 | G4 D4 | D6 z2 |: z8 | z8 | z4 z2 D2 | G2 G2 E2 E2 | %11
 F2 F2 F2 F2 | G8- | G6 GF | D4 [DF]4 |1 [DG]6 z2 :|2 [DG]8 |] %17
V:3
"_1. Thou wilt reveal the paths of life,  And raise me to thy throne;                        Thy   courts immortal  plea   –  sure.  plea–sure     give,       Thy  pre        –        –            sence  joys unknown.""_2. My spirit, Lord, thou wilt not leave  Where souls departed are;                         Nor      quit  my  body  to           the,   to      the     grave,       To   see ____________   cor–rup–tion  there.""_3. When shall my feet arise and stand  On  heav'n's  eternal hills?                       There   sits  the  Son at God's    right, God's  right   hand,      And there ___________  the  Fa – ther smiles." G8 | %1
 d2 d2 e2 c2 | B4 A4 | B6 A2 | G4 d4 | e4 f4 | g6 z2 |: z4 z2 G2 | d2 d2 d2 c2 | B6 A2 | e4 ^c4 | %11
 d6 d2 | (G3 A B3 c | d6) ec | B4 A4 |1 G6 z2 :|2 G8 |] %17
V:4
"_1. Thou wilt reveal the paths of life,  And raise me to thy throne;  Thy courts immortal pleasure give, Thy courts immortal  pleasure   give,       Thy  pre        –        –           sence joys unknown.  Thy""_2. My spirit, Lord, thou wilt not leave  Where souls departed are;  Nor  quit  my  bo–dyto the grave,  Nor quit  my body  to   the        grave,       To    see ___________   cor–rup–tion  there.  Nor""_3. When shall my feet arise and stand  On  heav'n's  eternal hills? There sits the Son at God's right hand,  There sits the Son at God's right hand,  And there ________    the  Fa – ther smiles.  There" G,8 | %1
 G,2 G,2 C,2 C,2 | D,4 D,4 | G,6 D,2 | E,4 G,4 | C4 D4 | G,6 G,2 |: D2 D2 D2 D>C | %8
 B,2 B,2 B,2 A,2 | G,2 G,2 G,2 F,2 | E,4 A,4 | D,6 D,2 | [G,,G,]8- | [G,,G,]6 C,2 | D,4 [D,,D,]4 |1 %15
 [G,,G,]6 G,2 :|2 [G,,G,]8 |] %17

